src/assets/icons/nodejs.svg

<svg width="101" height="100" viewBox="0 0 101 100" fill="none" xmlns="http://www.w3.org/2000/svg">
<g id="node-js-svgrepo-com 1">
<path id="Vector" d="M54.1641 7.18351C51.9459 5.93604 49.0541 5.94163 46.8341 7.18351C35.7153 13.3196 24.5963 19.4575 13.4755 25.5908C11.3115 26.7292 9.85199 29.0531 9.87527 31.465V68.54C9.85965 70.9991 11.3944 73.3453 13.6142 74.4681C16.8085 76.1675 19.9119 78.0394 23.1639 79.6256C26.9203 81.4716 31.6201 81.8797 35.4225 79.9547C38.5091 78.3594 39.88 74.8109 39.8759 71.55C39.9009 59.3144 39.88 47.0784 39.8856 34.8425C39.9591 34.2988 39.5506 33.7175 38.9575 33.7306C37.5366 33.7081 36.1137 33.7175 34.6928 33.7269C34.1559 33.6763 33.6319 34.1222 33.6725 34.6619C33.6534 46.8188 33.6762 58.9794 33.6609 71.1381C33.6919 72.82 32.5556 74.4363 30.9348 75.0044C27.1912 76.3166 16.5062 69.3788 16.5062 69.3788C16.1141 69.1972 15.8651 68.7719 15.9035 68.3494C15.9035 56.1175 15.9054 43.8853 15.9035 31.6553C15.8496 31.1622 16.1535 30.7181 16.6063 30.5168C27.6885 24.4169 38.765 18.3017 49.8472 12.198C50.2322 11.9411 50.7687 11.9419 51.1528 12.1999C62.235 18.3017 73.3134 24.4113 84.3975 30.5115C84.8519 30.7125 85.1428 31.1641 85.0966 31.6553C85.0947 43.8853 85.1003 56.1175 85.0928 68.3478C85.1256 68.7806 84.9019 69.2 84.4978 69.39C73.5191 75.4569 62.4153 81.3281 51.5359 87.5713C51.0612 87.8434 50.5234 88.1519 49.9916 87.8519C47.1306 86.2694 44.3044 84.6253 41.4528 83.0275C41.1428 82.8341 40.7481 82.7509 40.4247 82.9675C39.1462 83.6413 37.9437 84.1869 36.4756 84.7681C34.4137 85.5844 34.7431 85.9181 36.6028 87.0016C39.9375 88.8888 43.2778 90.7684 46.6125 92.6575C48.8078 94.0275 51.7575 94.125 54.0234 92.8591C65.1441 86.7306 76.2612 80.595 87.3841 74.4666C89.5978 73.3375 91.1403 71.0006 91.1247 68.5397V31.465C91.1462 29.102 89.7425 26.8196 87.6437 25.6644C76.4862 19.4984 65.3234 13.3458 54.1641 7.18351Z" fill="#8CC84B"/>
<path id="Vector_2" d="M70.9436 35.0194C66.5789 32.6844 61.3864 32.56 56.5361 32.8654C53.032 33.2116 49.3467 34.1785 46.7939 36.6904C44.1755 39.2154 43.6055 43.2928 44.8492 46.5891C45.7405 48.9185 47.9839 50.4332 50.3039 51.2344C53.2924 52.2894 56.4311 52.6157 59.5708 52.9419C62.4345 53.2394 65.2992 53.5372 68.0517 54.3882C69.1761 54.7607 70.4855 55.3307 70.8299 56.5541C71.148 58.0028 70.7992 59.6869 69.623 60.6935C65.8867 63.6507 55.4936 63.1975 51.802 60.87C50.3095 59.8785 49.6664 58.1232 49.4049 56.4504C49.3758 55.9291 48.9561 55.451 48.3902 55.4907C46.973 55.4738 45.5558 55.4775 44.1386 55.4888C43.6442 55.4472 43.1302 55.7991 43.103 56.3038C42.8117 63.9654 49.8483 67.3054 56.4499 68.0407C60.2214 68.4 64.0758 68.3794 67.7899 67.57C70.5817 66.9344 73.3811 65.7638 75.303 63.6135C77.673 61 78.1389 57.1091 77.0761 53.8538C76.2636 51.4247 73.9414 49.8666 71.5677 49.065C68.3395 47.9582 64.5139 47.3632 61.5902 47.0847C57.3405 46.68 52.2905 46.8454 51.0877 44.0529C50.608 42.5907 51.0161 40.775 52.3599 39.8757C55.9152 37.4641 63.1511 37.7844 66.833 39.586C68.5236 40.4325 69.5033 42.1713 69.9077 43.9266C69.9827 44.4422 70.3295 44.9804 70.9264 44.9579C72.3339 44.986 73.7414 44.9653 75.1486 44.9672C75.632 45.001 76.1614 44.7282 76.2558 44.2332C76.1961 40.5644 74.3227 36.8088 70.9436 35.0194Z" fill="#8CC84B"/>
</g>
</svg>

<svg xmlns="http://www.w3.org/2000/svg" width="101" height="100" fill="none">
  <g fill="#8CC84B">
    <path d="M54.164 7.184c-2.218-1.248-5.11-1.242-7.33 0C35.715 13.32 24.596 19.457 13.476 25.59c-2.165 1.138-3.624 3.462-3.6 5.874V68.54c-.016 2.46 1.518 4.805 3.738 5.928 3.194 1.7 6.298 3.571 9.55 5.158 3.756 1.846 8.456 2.254 12.258.329 3.087-1.596 4.458-5.144 4.454-8.405.025-12.236.004-24.472.01-36.707.073-.544-.335-1.126-.928-1.112-1.421-.023-2.844-.014-4.265-.004-.537-.05-1.061.395-1.02.935-.02 12.157.003 24.317-.012 36.476.03 1.682-1.105 3.298-2.726 3.866-3.744 1.313-14.429-5.625-14.429-5.625a1.054 1.054 0 0 1-.603-1.03c0-12.232.002-24.464 0-36.694-.053-.493.25-.937.703-1.138 11.082-6.1 22.159-12.215 33.241-18.319a1.2 1.2 0 0 1 1.306.002c11.082 6.102 22.16 12.211 33.244 18.312.455.2.746.652.7 1.143-.002 12.23.003 24.462-.004 36.693.033.433-.191.852-.595 1.042-10.979 6.067-22.083 11.938-32.962 18.181-.475.272-1.013.58-1.544.28-2.861-1.582-5.688-3.226-8.54-4.823-.31-.194-.704-.277-1.027-.06a38.553 38.553 0 0 1-3.95 1.8c-2.061.816-1.732 1.15.128 2.234 3.334 1.887 6.675 3.766 10.01 5.656 2.195 1.37 5.145 1.467 7.41.201 11.121-6.128 22.238-12.264 33.361-18.392 2.214-1.13 3.756-3.466 3.74-5.927V31.465c.022-2.363-1.381-4.645-3.48-5.8-11.158-6.167-22.32-12.32-33.48-18.481Z"/>
    <path d="M70.944 35.02c-4.365-2.336-9.558-2.46-14.408-2.155-3.504.347-7.19 1.313-9.742 3.825-2.618 2.525-3.188 6.603-1.945 9.9.892 2.328 3.135 3.843 5.455 4.644 2.988 1.055 6.127 1.382 9.267 1.708 2.864.297 5.728.595 8.48 1.446 1.125.373 2.434.943 2.779 2.166.318 1.449-.03 3.133-1.207 4.14-3.736 2.957-14.13 2.503-17.821.176-1.492-.991-2.136-2.747-2.397-4.42-.03-.52-.449-.999-1.015-.96a213.67 213.67 0 0 0-4.251-.001c-.495-.042-1.009.31-1.036.815-.291 7.661 6.745 11.001 13.347 11.737 3.771.359 7.626.338 11.34-.471 2.792-.636 5.591-1.806 7.513-3.956 2.37-2.614 2.836-6.505 1.773-9.76-.812-2.43-3.135-3.987-5.508-4.789-3.228-1.107-7.054-1.702-9.978-1.98-4.25-.405-9.3-.24-10.502-3.032-.48-1.462-.072-3.278 1.272-4.177 3.555-2.412 10.791-2.092 14.473-.29 1.69.846 2.67 2.585 3.075 4.34.075.516.421 1.054 1.018 1.032 1.408.028 2.815.007 4.223.01.483.033 1.012-.24 1.107-.735-.06-3.669-1.933-7.424-5.312-9.214Z"/>
  </g>
</svg>
